app/img/main-block-image-3.svg

<svg width="64" height="64" viewBox="0 0 64 64" fill="none" xmlns="http://www.w3.org/2000/svg">
<rect width="64" height="64" rx="18" fill="white"/>
<path d="M51.6121 35.9375C51.1394 35.7418 50.6419 35.6425 50.1332 35.6425C49.0114 35.6425 47.9751 36.1213 47.2556 36.9236L46.4168 36.5761L44.0243 35.5851C44.3638 34.4486 44.547 33.2453 44.547 31.9999C44.547 30.7545 44.3637 29.5512 44.0243 28.4147L46.4168 27.4236L47.2556 27.0762C47.9751 27.8785 49.0114 28.3572 50.1332 28.3572C50.6419 28.3572 51.1394 28.258 51.6121 28.0621C53.582 27.2461 54.521 24.9795 53.7049 23.0094C53.1041 21.5588 51.7012 20.6214 50.1311 20.6214C49.6225 20.6214 49.1249 20.7207 48.6522 20.9165C47.0997 21.5596 46.1884 23.1036 46.2709 24.6934L45.4273 25.0428L43.0355 26.0335C41.8735 23.893 40.107 22.1264 37.9664 20.9645L38.9571 18.5727L39.3062 17.73C39.3738 17.7335 39.4416 17.7356 39.5097 17.7356C41.0799 17.7356 42.4826 16.7982 43.0836 15.3476C43.8996 13.3776 42.9607 11.1109 40.9907 10.2949C40.5179 10.0993 40.0204 10 39.5118 10C37.9416 10 36.5389 10.9373 35.9379 12.3879C35.2948 13.9405 35.7422 15.6767 36.9247 16.7425L36.5765 17.5832L35.5855 19.9758C34.4489 19.6363 33.2457 19.453 32.0002 19.453C30.7548 19.453 29.5515 19.6363 28.415 19.9758L27.424 17.5832L27.0758 16.7425C28.2583 15.6767 28.7057 13.9405 28.0626 12.3879C27.4616 10.9373 26.0587 10 24.4886 10C23.98 10 23.4824 10.0993 23.0097 10.2951C21.0398 11.1112 20.1008 13.3778 20.9169 15.3479C21.5178 16.7984 22.9206 17.7358 24.4907 17.7358C24.5588 17.7358 24.6266 17.7338 24.6942 17.7302L25.0433 18.5729L26.034 20.9647C23.8934 22.1267 22.1268 23.8932 20.9649 26.0338L18.5731 25.0431L17.7295 24.6937C17.812 23.1039 16.9007 21.5599 15.3482 20.9167C14.8755 20.7209 14.3779 20.6217 13.8693 20.6217C12.2991 20.6217 10.8964 21.559 10.2954 23.0096C9.47942 24.9797 10.4183 27.2463 12.3883 28.0624C12.861 28.2582 13.3585 28.3574 13.8672 28.3574C14.989 28.3574 16.0253 27.8787 16.7448 27.0764L17.5836 27.4238L19.9762 28.4148C19.6366 29.5513 19.4534 30.7546 19.4534 32C19.4534 33.2454 19.6367 34.4487 19.9762 35.5853L17.5835 36.5761L16.7447 36.9236C16.0252 36.1213 14.9889 35.6425 13.8671 35.6425C13.3585 35.6425 12.8609 35.7418 12.3882 35.9376C10.4183 36.7537 9.47933 39.0203 10.2954 40.9904C10.8963 42.4409 12.2991 43.3783 13.8692 43.3783C14.3778 43.3783 14.8754 43.2791 15.3481 43.0832C16.9006 42.4401 17.8119 40.8961 17.7294 39.3063L18.5731 38.9569L20.9649 37.9662C22.1268 40.1068 23.8933 41.8734 26.0339 43.0353L25.0432 45.4271L24.6941 46.2698C24.6265 46.2662 24.5587 46.2642 24.4906 46.2642C22.9205 46.2642 21.5177 47.2015 20.9167 48.6521C20.1008 50.6222 21.0396 52.8888 23.0097 53.7049C23.4823 53.9007 23.9799 53.9999 24.4885 53.9999C26.0587 53.9999 27.4615 53.0626 28.0624 51.612C28.7055 50.0594 28.2581 48.3232 27.0756 47.2574L27.4238 46.4167L28.4149 44.0241C29.5514 44.3636 30.7547 44.5469 32.0001 44.5469C33.2455 44.5469 34.4488 44.3636 35.5853 44.0241L36.5763 46.4167L36.9245 47.2574C35.742 48.3232 35.2947 50.0594 35.9377 51.6121C36.5386 53.0626 37.9414 54 39.5115 54C40.0202 54 40.5178 53.9007 40.9904 53.7049C42.9604 52.8888 43.8993 50.6222 43.0832 48.6521C42.4824 47.2016 41.0795 46.2642 39.5095 46.2642C39.4414 46.2642 39.3736 46.2662 39.306 46.2698L38.9569 45.4271L37.9662 43.0353C40.1067 41.8733 41.8733 40.1068 43.0352 37.9662L45.427 38.9569L46.2707 39.3063C46.1882 40.8961 47.0994 42.4401 48.652 43.0833C49.1246 43.2791 49.6222 43.3783 50.1309 43.3783C51.701 43.3783 53.1038 42.441 53.7048 40.9904C54.521 39.0203 53.5822 36.7536 51.6121 35.9375ZM32.0002 41.9686C26.5035 41.9686 22.0315 37.4966 22.0315 31.9999C22.0315 26.5031 26.5035 22.0311 32.0002 22.0311C37.497 22.0311 41.969 26.5031 41.969 31.9999C41.969 37.4966 37.4969 41.9686 32.0002 41.9686Z" fill="black"/>
<path d="M51.6121 35.9375C51.1394 35.7418 50.6419 35.6425 50.1332 35.6425C49.0114 35.6425 47.9751 36.1213 47.2556 36.9236L46.4168 36.5761L44.0243 35.5851C44.3638 34.4486 44.547 33.2453 44.547 31.9999C44.547 30.7545 44.3637 29.5512 44.0243 28.4147L46.4168 27.4236L47.2556 27.0762C47.9751 27.8785 49.0114 28.3572 50.1332 28.3572C50.6419 28.3572 51.1394 28.258 51.6121 28.0621C53.582 27.2461 54.521 24.9795 53.7049 23.0094C53.1041 21.5588 51.7012 20.6214 50.1311 20.6214C49.6225 20.6214 49.1249 20.7207 48.6522 20.9165C47.0997 21.5596 46.1884 23.1036 46.2709 24.6934L45.4273 25.0428L43.0355 26.0335C41.8735 23.893 40.107 22.1264 37.9664 20.9645L38.9571 18.5727L39.3062 17.73C39.3738 17.7335 39.4416 17.7356 39.5097 17.7356C41.0799 17.7356 42.4826 16.7982 43.0836 15.3476C43.8996 13.3776 42.9607 11.1109 40.9907 10.2949C40.5179 10.0993 40.0204 10 39.5118 10C37.9416 10 36.5389 10.9373 35.9379 12.3879C35.2948 13.9405 35.7422 15.6767 36.9247 16.7425L36.5765 17.5832L35.5855 19.9758C34.4489 19.6363 33.2457 19.453 32.0002 19.453C30.7548 19.453 29.5515 19.6363 28.415 19.9758L27.424 17.5832L27.0758 16.7425C28.2583 15.6767 28.7057 13.9405 28.0626 12.3879C27.4616 10.9373 26.0587 10 24.4886 10C23.98 10 23.4824 10.0993 23.0097 10.2951C21.0398 11.1112 20.1008 13.3778 20.9169 15.3479C21.5178 16.7984 22.9206 17.7358 24.4907 17.7358C24.5588 17.7358 24.6266 17.7338 24.6942 17.7302L25.0433 18.5729L26.034 20.9647C23.8934 22.1267 22.1268 23.8932 20.9649 26.0338L18.5731 25.0431L17.7295 24.6937C17.812 23.1039 16.9007 21.5599 15.3482 20.9167C14.8755 20.7209 14.3779 20.6217 13.8693 20.6217C12.2991 20.6217 10.8964 21.559 10.2954 23.0096C9.47942 24.9797 10.4183 27.2463 12.3883 28.0624C12.861 28.2582 13.3585 28.3574 13.8672 28.3574C14.989 28.3574 16.0253 27.8787 16.7448 27.0764L17.5836 27.4238L19.9762 28.4148C19.6366 29.5513 19.4534 30.7546 19.4534 32C19.4534 33.2454 19.6367 34.4487 19.9762 35.5853L17.5835 36.5761L16.7447 36.9236C16.0252 36.1213 14.9889 35.6425 13.8671 35.6425C13.3585 35.6425 12.8609 35.7418 12.3882 35.9376C10.4183 36.7537 9.47933 39.0203 10.2954 40.9904C10.8963 42.4409 12.2991 43.3783 13.8692 43.3783C14.3778 43.3783 14.8754 43.2791 15.3481 43.0832C16.9006 42.4401 17.8119 40.8961 17.7294 39.3063L18.5731 38.9569L20.9649 37.9662C22.1268 40.1068 23.8933 41.8734 26.0339 43.0353L25.0432 45.4271L24.6941 46.2698C24.6265 46.2662 24.5587 46.2642 24.4906 46.2642C22.9205 46.2642 21.5177 47.2015 20.9167 48.6521C20.1008 50.6222 21.0396 52.8888 23.0097 53.7049C23.4823 53.9007 23.9799 53.9999 24.4885 53.9999C26.0587 53.9999 27.4615 53.0626 28.0624 51.612C28.7055 50.0594 28.2581 48.3232 27.0756 47.2574L27.4238 46.4167L28.4149 44.0241C29.5514 44.3636 30.7547 44.5469 32.0001 44.5469C33.2455 44.5469 34.4488 44.3636 35.5853 44.0241L36.5763 46.4167L36.9245 47.2574C35.742 48.3232 35.2947 50.0594 35.9377 51.6121C36.5386 53.0626 37.9414 54 39.5115 54C40.0202 54 40.5178 53.9007 40.9904 53.7049C42.9604 52.8888 43.8993 50.6222 43.0832 48.6521C42.4824 47.2016 41.0795 46.2642 39.5095 46.2642C39.4414 46.2642 39.3736 46.2662 39.306 46.2698L38.9569 45.4271L37.9662 43.0353C40.1067 41.8733 41.8733 40.1068 43.0352 37.9662L45.427 38.9569L46.2707 39.3063C46.1882 40.8961 47.0994 42.4401 48.652 43.0833C49.1246 43.2791 49.6222 43.3783 50.1309 43.3783C51.701 43.3783 53.1038 42.441 53.7048 40.9904C54.521 39.0203 53.5822 36.7536 51.6121 35.9375ZM32.0002 41.9686C26.5035 41.9686 22.0315 37.4966 22.0315 31.9999C22.0315 26.5031 26.5035 22.0311 32.0002 22.0311C37.497 22.0311 41.969 26.5031 41.969 31.9999C41.969 37.4966 37.4969 41.9686 32.0002 41.9686Z" fill="url(#paint0_linear)"/>
<path d="M32 24.6093C27.9248 24.6093 24.6094 27.9247 24.6094 31.9999C24.6094 36.075 27.9248 39.3905 32 39.3905C36.0751 39.3905 39.3906 36.075 39.3906 31.9999C39.3906 27.9247 36.0751 24.6093 32 24.6093ZM33.289 34.8358H30.7109V29.1639H33.289V34.8358Z" fill="black"/>
<path d="M32 24.6093C27.9248 24.6093 24.6094 27.9247 24.6094 31.9999C24.6094 36.075 27.9248 39.3905 32 39.3905C36.0751 39.3905 39.3906 36.075 39.3906 31.9999C39.3906 27.9247 36.0751 24.6093 32 24.6093ZM33.289 34.8358H30.7109V29.1639H33.289V34.8358Z" fill="url(#paint1_linear)"/>
<defs>
<linearGradient id="paint0_linear" x1="32.0002" y1="10" x2="32.0002" y2="54" gradientUnits="userSpaceOnUse">
<stop stop-color="#EF8080"/>
<stop offset="1" stop-color="#F0145A"/>
</linearGradient>
<linearGradient id="paint1_linear" x1="32" y1="24.6093" x2="32" y2="39.3905" gradientUnits="userSpaceOnUse">
<stop stop-color="#EF8080"/>
<stop offset="1" stop-color="#F0145A"/>
</linearGradient>
</defs>
</svg>

<svg width="64" height="64" fill="none" xmlns="http://www.w3.org/2000/svg"><rect width="64" height="64" rx="18" fill="#fff"/><path d="M51.612 35.938a3.847 3.847 0 00-1.479-.296 3.857 3.857 0 00-2.877 1.282l-.84-.348-2.392-.99c.34-1.137.523-2.34.523-3.586a12.51 12.51 0 00-.523-3.585l2.393-.991.839-.348a3.857 3.857 0 002.877 1.281 3.872 3.872 0 003.572-5.348 3.857 3.857 0 00-3.574-2.388 3.873 3.873 0 00-3.86 4.072l-.844.35-2.392.99a12.637 12.637 0 00-5.069-5.069l.991-2.391.35-.843a3.857 3.857 0 003.777-2.382A3.872 3.872 0 0039.512 10c-1.57 0-2.973.937-3.574 2.388a3.873 3.873 0 00.987 4.354l-.348.841-.991 2.393A12.508 12.508 0 0032 19.453c-1.245 0-2.448.183-3.585.523l-.991-2.393-.348-.84a3.873 3.873 0 00.987-4.355A3.857 3.857 0 0024.489 10a3.872 3.872 0 00-3.572 5.348 3.857 3.857 0 003.777 2.382l.35.843.99 2.392a12.637 12.637 0 00-5.07 5.069l-2.39-.99-.845-.35a3.874 3.874 0 00-3.86-4.072c-1.57 0-2.973.937-3.574 2.388a3.872 3.872 0 003.572 5.347 3.857 3.857 0 002.878-1.28l.839.347 2.392.99A12.503 12.503 0 0019.453 32c0 1.245.184 2.449.523 3.585l-2.392.991-.84.348a3.857 3.857 0 00-4.356-.986 3.872 3.872 0 00-2.093 5.052 3.857 3.857 0 003.574 2.388 3.873 3.873 0 003.86-4.072l.844-.35 2.392-.99a12.636 12.636 0 005.069 5.07l-.99 2.391-.35.843a3.857 3.857 0 00-3.777 2.382A3.872 3.872 0 0024.489 54c1.57 0 2.973-.937 3.573-2.388a3.873 3.873 0 00-.986-4.355l.348-.84.99-2.393c1.137.34 2.34.523 3.586.523 1.245 0 2.449-.183 3.585-.523l.991 2.393.349.84a3.874 3.874 0 00-.987 4.355A3.857 3.857 0 0039.51 54a3.872 3.872 0 003.572-5.348 3.857 3.857 0 00-3.777-2.382l-.35-.843-.99-2.392a12.637 12.637 0 005.07-5.069l2.391.99.844.35a3.873 3.873 0 003.86 4.072c1.57 0 2.973-.937 3.574-2.388a3.871 3.871 0 00-2.093-5.053zM32 41.968c-5.497 0-9.968-4.471-9.968-9.968S26.503 22.03 32 22.03 41.97 26.503 41.97 32c0 5.497-4.472 9.969-9.969 9.969z" fill="#000"/><path d="M51.612 35.938a3.847 3.847 0 00-1.479-.296 3.857 3.857 0 00-2.877 1.282l-.84-.348-2.392-.99c.34-1.137.523-2.34.523-3.586a12.51 12.51 0 00-.523-3.585l2.393-.991.839-.348a3.857 3.857 0 002.877 1.281 3.872 3.872 0 003.572-5.348 3.857 3.857 0 00-3.574-2.388 3.873 3.873 0 00-3.86 4.072l-.844.35-2.392.99a12.637 12.637 0 00-5.069-5.069l.991-2.391.35-.843a3.857 3.857 0 003.777-2.382A3.872 3.872 0 0039.512 10c-1.57 0-2.973.937-3.574 2.388a3.873 3.873 0 00.987 4.354l-.348.841-.991 2.393A12.508 12.508 0 0032 19.453c-1.245 0-2.448.183-3.585.523l-.991-2.393-.348-.84a3.873 3.873 0 00.987-4.355A3.857 3.857 0 0024.489 10a3.872 3.872 0 00-3.572 5.348 3.857 3.857 0 003.777 2.382l.35.843.99 2.392a12.637 12.637 0 00-5.07 5.069l-2.39-.99-.845-.35a3.874 3.874 0 00-3.86-4.072c-1.57 0-2.973.937-3.574 2.388a3.872 3.872 0 003.572 5.347 3.857 3.857 0 002.878-1.28l.839.347 2.392.99A12.503 12.503 0 0019.453 32c0 1.245.184 2.449.523 3.585l-2.392.991-.84.348a3.857 3.857 0 00-4.356-.986 3.872 3.872 0 00-2.093 5.052 3.857 3.857 0 003.574 2.388 3.873 3.873 0 003.86-4.072l.844-.35 2.392-.99a12.636 12.636 0 005.069 5.07l-.99 2.391-.35.843a3.857 3.857 0 00-3.777 2.382A3.872 3.872 0 0024.489 54c1.57 0 2.973-.937 3.573-2.388a3.873 3.873 0 00-.986-4.355l.348-.84.99-2.393c1.137.34 2.34.523 3.586.523 1.245 0 2.449-.183 3.585-.523l.991 2.393.349.84a3.874 3.874 0 00-.987 4.355A3.857 3.857 0 0039.51 54a3.872 3.872 0 003.572-5.348 3.857 3.857 0 00-3.777-2.382l-.35-.843-.99-2.392a12.637 12.637 0 005.07-5.069l2.391.99.844.35a3.873 3.873 0 003.86 4.072c1.57 0 2.973-.937 3.574-2.388a3.871 3.871 0 00-2.093-5.053zM32 41.968c-5.497 0-9.968-4.471-9.968-9.968S26.503 22.03 32 22.03 41.97 26.503 41.97 32c0 5.497-4.472 9.969-9.969 9.969z" fill="url(#paint0_linear)"/><path d="M32 24.61c-4.075 0-7.39 3.315-7.39 7.39 0 4.075 3.315 7.39 7.39 7.39 4.075 0 7.39-3.315 7.39-7.39 0-4.075-3.315-7.39-7.39-7.39zm1.289 10.226h-2.578v-5.672h2.578v5.672z" fill="#000"/><path d="M32 24.61c-4.075 0-7.39 3.315-7.39 7.39 0 4.075 3.315 7.39 7.39 7.39 4.075 0 7.39-3.315 7.39-7.39 0-4.075-3.315-7.39-7.39-7.39zm1.289 10.226h-2.578v-5.672h2.578v5.672z" fill="url(#paint1_linear)"/><defs><linearGradient id="paint0_linear" x1="32" y1="10" x2="32" y2="54" gradientUnits="userSpaceOnUse"><stop stop-color="#EF8080"/><stop offset="1" stop-color="#F0145A"/></linearGradient><linearGradient id="paint1_linear" x1="32" y1="24.609" x2="32" y2="39.391" gradientUnits="userSpaceOnUse"><stop stop-color="#EF8080"/><stop offset="1" stop-color="#F0145A"/></linearGradient></defs></svg>
